icons/travel-target-1-filled.svg

<svg viewBox="0 0 26 26"><path fill="currentColor" d="M12 5.8a1 1 0 1 0 2 0zm2-4.8a1 1 0 1 0-2 0zm-2 24a1 1 0 1 0 2 0zm2-4.8a1 1 0 1 0-2 0zm6.2-8.2a1 1 0 1 0 0 2zm4.8 2a1 1 0 1 0 0-2zm-24-2a1 1 0 1 0 0 2zm4.8 2a1 1 0 1 0 0-2zm15.8-1a8.6 8.6 0 0 1-8.6 8.6v2c5.9 0 10.6-4.7 10.6-10.6zm-8.6 8.6a8.6 8.6 0 0 1-8.6-8.6h-2c0 5.9 4.7 10.6 10.6 10.6zm-8.6-8.6a8.6 8.6 0 0 1 8.6-8.6v-2c-5.9 0-10.6 4.7-10.6 10.6zm8.6-8.6a8.6 8.6 0 0 1 8.6 8.6h2c0-5.9-4.7-10.6-10.6-10.6zm1 1.4v-4.8h-2v4.8zm0 19.2v-4.8h-2v4.8zm6.2-11h4.8v-2h-4.8zm-19.2 0h4.8v-2h-4.8zm14.6-1a2.6 2.6 0 0 1-2.6 2.6v2a4.6 4.6 0 0 0 4.6-4.6zm-2.6 2.6a2.6 2.6 0 0 1-2.6-2.6h-2a4.6 4.6 0 0 0 4.6 4.6zm-2.6-2.6a2.6 2.6 0 0 1 2.6-2.6v-2a4.6 4.6 0 0 0-4.6 4.6zm2.6-2.6a2.6 2.6 0 0 1 2.6 2.6h2a4.6 4.6 0 0 0-4.6-4.6z"/></svg>

<svg viewBox="0 0 26 26"><path fill="currentColor" d="M12 5.8a1 1 0 1 0 2 0zM14 1a1 1 0 1 0-2 0zm-2 24a1 1 0 1 0 2 0zm2-4.8a1 1 0 1 0-2 0zm6.2-8.2a1 1 0 1 0 0 2zm4.8 2a1 1 0 1 0 0-2zM1 12a1 1 0 1 0 0 2zm4.8 2a1 1 0 1 0 0-2zm15.8-1a8.6 8.6 0 0 1-8.6 8.6v2c5.9 0 10.6-4.7 10.6-10.6zM13 21.6A8.6 8.6 0 0 1 4.4 13h-2c0 5.9 4.7 10.6 10.6 10.6zM4.4 13A8.6 8.6 0 0 1 13 4.4v-2C7.1 2.4 2.4 7.1 2.4 13zM13 4.4a8.6 8.6 0 0 1 8.6 8.6h2c0-5.9-4.7-10.6-10.6-10.6zm1 1.4V1h-2v4.8zM14 25v-4.8h-2V25zm6.2-11H25v-2h-4.8zM1 14h4.8v-2H1zm14.6-1a2.6 2.6 0 0 1-2.6 2.6v2a4.6 4.6 0 0 0 4.6-4.6zM13 15.6a2.6 2.6 0 0 1-2.6-2.6h-2a4.6 4.6 0 0 0 4.6 4.6zM10.4 13a2.6 2.6 0 0 1 2.6-2.6v-2A4.6 4.6 0 0 0 8.4 13zm2.6-2.6a2.6 2.6 0 0 1 2.6 2.6h2A4.6 4.6 0 0 0 13 8.4z"/></svg>
